X:1
T:Lilting Fisherman, The
R:jig
C:Syracuse session setting
M:6/8
K:G
B/c/|dBG GBd|gfg ege|dBG GFG|AFD cBA|
dBG GBd|gfg ege|dBG FGA|BGG G2:|
K:D
F/G/|ABA AFD|fgf f2e|dce dcB|AFF F2F|
AFA AFA|BGB B2d|cde ABc|d3 d2:|
